!! 00000] TT[WS
!!!OTL: Ma yanxishan
!!!ARE: Asia, China, Shanxi Dingxiang
!! Ethnic Group: Han
!! WI, 306 (2)
!!!SCT: J0370
!!!YEM: Copyright 1995, estate of Helmut Schaffrath.
**kern
*ICvox
*Ivox
*M2/4
*k[f#]
*G:
{8a
16a
16dd
16b
16dd
16b
16a
=1
8dd
8g
4a
=2
8dd
8g
16e
16g
16e
16d
=3
16e
16d
8c
4d}
=4
{8.d
16e
8d
8B
=5
4d
8.g
16a
=6
8b
4.a}
=7
{16a
16b
16a
16g
8e
8d
=8
8c
8d
8g
8e
=9
16d
16e
16d
16c
4d}
==
!!!AGN: Xiaodiao. Xinminge, Xuanchuan
!! Neue Text. Politische Liede
!!!ONB: ESAC (Essen Associative Code) Database: CHINA
!!!AMT: simple duple
!!!AIN: vox
!!!EED: Helmut Schaffrath
!!!EEV: 1.0
*-
